src/topics/icons/webplatform.svg

<svg height="254" preserveAspectRatio="xMidYMid" viewBox="0 0 256 253.9" width="256" xmlns="http://www.w3.org/2000/svg"><path d="m256 219.9v-186c0-18.7-15.2-33.9-33.9-33.9s-33.9 15.2-33.9 33.9v104.1l57.9 57.9c6.6 6.6 9.9 15.3 9.9 24z" fill="#2db2c4"/><path d="m104.7 101.2-37.6 37.5v81.9c0 9.4-3.8 17.8-9.9 24l71.5-71.4-24-24c-13.2-13.3-13.2-34.7 0-48z" fill="#e45026"/><path d="m188.8 138.7-37.4-37.4c13.2 13.2 13.2 34.7 0 48l-24 24 71.4 71.4c-6.1-6.1-9.7-14.8-9.9-24v-82z" fill="#694ea0"/><path d="m104 149.8 24 24 24-24c13.2-13.2 13.2-34.7 0-48-13.2-13.2-34.7-13.2-48 0-13.2 13.3-13.2 34.7 0 48z" fill="#801434"/><path d="m67.8 138c-15.4 15.4-30.8 30.8-46.2 46.2-6.8 6.8-15.7 13.5-19.1 22.9-4.4 10.9-2.8 23.6 4.3 33.1 7 9.4 19.4 15.2 31.2 13.4 11.4-1.8 21.4-8.3 26.5-18.9 2.6-5.4 3.6-10.8 3.4-17 0-11.1 0-22.1 0-33.2-.1-15.6-.1-31-.1-46.5z" fill="#d02f28"/><path d="m188.2 138v65.4c0 9.6-1.2 20.4 2.5 29.4 4.3 10.4 14.1 18.7 25.3 20.5 11.9 1.8 24-2.1 31.8-11.4 7.6-9 9.9-21.6 6.4-32.8-1.8-5.8-5.3-10.5-9.8-14.8-7.9-7.9-15.7-15.7-23.5-23.5-10.9-10.9-21.8-21.8-32.7-32.8z" fill="#263d81"/><path d="m67.8 138v-104.1c0-18.7-15.2-33.9-33.9-33.9s-33.9 15.2-33.9 33.9v186c0-8.7 3.3-17.4 9.9-24z" fill="#f99d22"/><g fill="#fff"><path d="m138.1 115.8c-5.5-5.5-14.6-5.5-20.1 0s-5.5 14.6 0 20.1 14.6 5.5 20.1 0 5.4-14.7 0-20.1z"/><circle cx="33.9" cy="33.9" r="14.2"/><circle cx="222.1" cy="33.9" r="14.2"/><circle cx="33.9" cy="219.9" r="14.2"/><circle cx="222.1" cy="219.9" r="14.2"/></g></svg>

<?xml version="1.0" encoding="utf-8" ?>
<svg width="256px" height="254px" viewBox="0 0 256 253.9" version="1.1" xmlns="http://www.w3.org/2000/svg" xmlns:xlink="http://www.w3.org/1999/xlink" preserveAspectRatio="xMidYMid">
    <path fill="#2DB2C4" d="M256,219.9v-186C256,15.2,240.8,0,222.1,0s-33.9,15.2-33.9,33.9V138l57.9,57.9C252.7,202.5,256,211.2,256,219.9z" />
    <path fill="#E45026" d="M104.7,101.2l-37.6,37.5v81.9c0,9.4-3.8,17.8-9.9,24l71.5-71.4l-24-24C91.5,135.9,91.5,114.5,104.7,101.2z" />
    <path fill="#694EA0" d="M188.8,138.7l-37.4-37.4c13.2,13.2,13.2,34.7,0,48l-24,24l71.4,71.4c-6.1-6.1-9.7-14.8-9.9-24V138.7z" />
    <path fill="#801434" d="M104,149.8l24,24l24-24c13.2-13.2,13.2-34.7,0-48c-13.2-13.2-34.7-13.2-48,0C90.8,115.1,90.8,136.5,104,149.8z" />
    <path fill="#D02F28" d="M67.8,138c-15.4,15.4-30.8,30.8-46.2,46.2c-6.8,6.8-15.7,13.5-19.1,22.9c-4.4,10.9-2.8,23.6,4.3,33.1c7,9.4,19.4,15.2,31.2,13.4c11.4-1.8,21.4-8.3,26.5-18.9c2.6-5.4,3.6-10.8,3.4-17c0-11.1,0-22.1,0-33.2C67.8,168.9,67.8,153.5,67.8,138z" />
    <path fill="#263D81" d="M188.2,138c0,21.8,0,43.6,0,65.4c0,9.6-1.2,20.4,2.5,29.4c4.3,10.4,14.1,18.7,25.3,20.5c11.9,1.8,24-2.1,31.8-11.4c7.6-9,9.9-21.6,6.4-32.8c-1.8-5.8-5.3-10.5-9.8-14.8c-7.9-7.9-15.7-15.7-23.5-23.5C210,159.9,199.1,149,188.2,138z" />
    <path fill="#F99D22" d="M67.8,138V33.9C67.8,15.2,52.6,0,33.9,0S0,15.2,0,33.9v186c0-8.7,3.3-17.4,9.9-24L67.8,138z" />
    <path fill="#FFFFFF" d="M138.1,115.8c-5.5-5.5-14.6-5.5-20.1,0c-5.5,5.5-5.5,14.6,0,20.1s14.6,5.5,20.1,0S143.5,121.2,138.1,115.8z" />
    <circle fill="#FFFFFF" cx="33.9" cy="33.9" r="14.2" />
    <circle fill="#FFFFFF" cx="222.1" cy="33.9" r="14.2" />
    <circle fill="#FFFFFF" cx="33.9" cy="219.9" r="14.2" />
    <circle fill="#FFFFFF" cx="222.1" cy="219.9" r="14.2" />
</svg>
